X:223
T:And Another Thing
O:england
R:Jig
M:6/8
C:Andy Hornby
A:Lancaster
N:March 95
K:ADor
E|\
Aee e2d|cBc ABc|BAB GBd|gfg d2B|\
Aee e2d|cBc A2c|BGB dcB|A3 A2:|
|:a|\
age aeb|age edc|BAG g2e|dBG GAB|\
cBA c2d|edc e2f|gfg dcB|A3 A2:|
W:Copyright (C) Andy Hornby


